X:68
T:Miss Baker
M:C
L:1/8
B:Thompson's Compleat Collection of 200 Favourite Country Dances, vol. 3 (London, 1773)
Z:Transcribed and edited by Flynn Titford-Mock, 2007
Z:abc's:AK/Fiddler's Companion
K:F
cB | A2 (F2 F)AGF | EG (B2 B)dcB | Acde fcdB | A2 (F2F2)::(3cde | fcAc fagf | gece gbag |
afge | fdgf | e2 (c2 c2) fc | (3def (3ABc B2 ba | gfed (cc) BA | (3Bcd (3EFG FdcB | A2F2F2 :|

